X: 1
T: Hill's Fancy
M: 4/4
L: 1/8
R: hornpipe
K: Gmin
|:FA|BFdc B2dc|BFdc B2ed|cFed c2ed|cFed cgec|
dFdc Bdcd|BFdc BfdB|Agec AFGA|B2d2 B2:|
|:fe|dBfe d2fe|(3dcB fB bBfB|AFcB A2cB|AFeF cFce|
(3dcB fe d2fe|(3dcB fB gBfB|Agec AFGA|B2d2 B2:|
